public/showcase/resources/images/home/icon-productive.svg

<svg height="65" viewBox="0 0 65 65" width="65" xmlns="http://www.w3.org/2000/svg"><g fill="none" fill-rule="evenodd" transform=""><path d="m39.8478261 0h-14.6956522c-13.8478261 0-25.1521739 11.3043478-25.1521739 25.1521739v14.6956522c0 13.8478261 11.3043478 25.1521739 25.1521739 25.1521739h14.6956522c13.8478261 0 25.1521739-11.3043478 25.1521739-25.1521739v-14.6956522c0-13.8478261-11.3043478-25.1521739-25.1521739-25.1521739zm23.7391304 39.8478261c0 13.0706522-10.6684782 23.7391304-23.7391304 23.7391304h-14.6956522c-13.0706522 0-23.73913042-10.6684782-23.73913042-23.7391304v-14.6956522c0-13.0706522 10.66847822-23.73913042 23.73913042-23.73913042h14.6956522c13.0706522 0 23.7391304 10.66847822 23.7391304 23.73913042zm-4.2391304-.2826087c0 10.8804348-8.9021739 19.7826087-19.7826087 19.7826087h-14.1304348c-10.8804348 0-19.78260869-8.9021739-19.78260869-19.7826087v-14.1304348c0-10.8804348 8.90217389-19.78260869 19.78260869-19.78260869h14.1304348c10.8804348 0 19.7826087 8.90217389 19.7826087 19.78260869z" fill="#222" fill-rule="nonzero"/><path d="m47.9338842 31.1687088-.7578209-.1312044c-.1635165-.4579191-.4129937-.8817458-.7355321-1.2495661l.2515456-.7091288c.1343422-.3622283-.0160916-.7667813-.3566216-.959042l-.6718497-.3779938c-.3401959-.1944231-.7737919-.1191199-1.0252872.1780632l-.4935388.5748004c-.4861839-.0887374-.9848803-.0887374-1.4710642 0l-.4935389-.5779243c-.2521952-.2959994-.6848479-.3711389-1.0252871-.1780632l-.6718497.3811177c-.3394772.1931278-.4895892.5968154-.3566216.959042l.2642821.7091288c-.3227854.3676483-.5722908.7915232-.7355321 1.2495661l-.7578209.1312044c-.3864946.0666941-.6684185.3959717-.6686656.7809789v.7591114c.0002471.3850071.282171.7142847.6686656.7809788l.7578209.1312044c.1633791.4579809.4128704.8818317.7355321 1.2495662l-.2515456.7185005c-.1343423.3622282.0160916.7667813.3566216.959042l.6718497.3779937c.3404392.1930757.7730919.1179363 1.0252871-.1780631l.4935389-.5779244c.4862039.0885236.9848602.0885236 1.4710642 0l.4935388.5779244c.2521953.2959994.684848.3711388 1.0252872.1780631l.6718496-.3811176c.3341906-.1959098.4786987-.5976074.3438852-.9559181l-.2642821-.7091288c.3225384-.3678203.5720156-.7916471.7355321-1.2495661l.7578209-.1312045c.3864946-.066694.6684184-.3959716.6686656-.7809788v-.7684831c.0008816-.381084-.2744983-.7089638-.6559291-.7809789zm-4.5119003 2.4991323c-.7478911-.0017305-1.3532416-.597041-1.3532367-1.3307928.0000048-.7337518.605363-1.3290546 1.3532541-1.3307757s1.3560892.590789 1.3596025 1.3245327c-.0008435.3537757-.1448983.6927329-.4004739.9423042-.2555755.2495714-.6017362.3893132-.9623301.3884837zm-.7005068-12.4956613-.3884628-.6497743c-.1959661-.3340912-.608316-.4816806-.9775254-.3498786l-.7132432.259285c-.3746459-.3168037-.8067146-.5616054-1.2736486-.7216244l-.1337332-.7434919c-.0680766-.3899036-.4184794-.6710548-.8215033-.6591461h-.7610051c-.3924273.0002425-.7280509.2768356-.7960304.6560222l-.1337331.7434919c-.4669023.1600869-.8989587.4048816-1.2736487.7216244l-.7227956-.259285c-.3692093-.131802-.7815593.0157874-.9775253.3498785l-.3852787.6591462c-.1967968.334002-.1202092.758474.1814949 1.0059007l.5890625.4842069c-.0907699.4780119-.0907699.9683608 0 1.4463728l-.5890625.4842068c-.2971822.2441775-.3759867.6608891-.1878632.9934051l.3884629.6591461c.195966.3340912.6083159.4816806.9775253.3498785l.7227956-.2592849c.3748217.3165607.8068412.5613345 1.2736487.7216244l.1337331.7434919c.0679794.3791866.4036031.6557797.7960304.6560222h.7641892c.3924273-.0002425.7280509-.2768356.7960304-.6560222l.1592061-.7309962c.4668074-.1602899.8988269-.4050637 1.2736486-.7216245l.7227956.259285c.3692094.1318021.7815593-.0157873.9775253-.3498785l.3789105-.6716418c.1925977-.3282146.1219281-.7442148-.1687584-.9934051l-.6049831-.4842068c.0907699-.478012.0907699-.9683609 0-1.4463728l.6049831-.4842069c.2973932-.250812.3685259-.6748052.1687584-1.0059007zm-4.6838429 3.5518917c-.5494891-.0012892-1.0439005-.3276944-1.2520778-.8266084-.2081773-.4989141-.0889881-1.0717601.3018419-1.4507103.3908301-.3789502.9760797-.4891305 1.482122-.2790274s.8328918.6989769.8277338 1.2380539c-.0087204.7305921-.6148962 1.3183423-1.3596199 1.3182922zm-13.5930152 2.88025.6718497.3779937c.3404392.1930757.7730919.1179363 1.0252871-.1780632l.4903548-.5748004c.4872245.0890536.9870237.0890536 1.4742483 0l.4935388.5779244c.2521953.2959994.684848.3711388 1.0252872.1780631l.6718497-.3811176c.34053-.1922607.4909638-.5968138.3566216-.959042l-.2642821-.7091288c.3227853-.3676484.5722908-.7915232.7355321-1.2495661l.7578209-.1312045c.3864946-.0666941.6684184-.3959716.6686656-.7809788v-.7622353c-.0002472-.3850072-.282171-.7142848-.6686656-.7809789l-.7578209-.1312044c-.1632413-.4580429-.4127468-.8819178-.7355321-1.2495661l.2642821-.7122527c.1343422-.3622283-.0160916-.7667813-.3566216-.959042l-.6718497-.3811177c-.3404392-.1930757-.7730919-.1179362-1.0252872.1780632l-.4935388.5810482c-.4861906-.088666-.9848736-.088666-1.4710642 0l-.496723-.5810482c-.2521952-.2959994-.684848-.3711389-1.0252871-.1780632l-.6686656.3811177c-.3417334.191267-.493598.5960538-.3598057.959042l.2642821.7122527c-.3226617.3677344-.572153.7915852-.7355321 1.2495661l-.757821.1312044c-.3864945.0666941-.6684184.3959717-.6686655.7809789v.7591114c.0002471.3850071.282171.7142847.6686655.7809788l.757821.1312044c.1635164.4579191.4129936.8817459.7355321 1.2495662l-.2642821.7122527c-.1337923.3629881.0180723.7677749.3598057.959042zm2.9262078-5.5449497c.747055.0000505 1.3534437.5927184 1.3563322 1.3256424s-.5988107 1.3301747-1.3458429 1.3358929c-.7470323.0057182-1.3581569-.5822488-1.3669251-1.3151278-.0033945-.3553947.1379135-.6974234.3925711-.9501983.2546577-.252775.6016057-.3953925.9638647-.3962092zm-9.870777 12.4956612.3884628.6591461c.1959661.3340912.608316.4816806.9775253.3498786l.732348-.2874002c.3747779.3166213.8068096.561402 1.2736487.7216244l.1337331.7434918c.0679794.3791866.4036031.6557798.7960304.6560222h.7737415c.3924273-.0002424.728051-.2768356.7960304-.6560222l.1337331-.7434918c.466839-.1602224.8988708-.4050031 1.2736487-.7216244l.7227956.2592849c.3692094.1318021.7815593-.0157873.9775253-.3498785l.3852787-.6591461c.1967968-.3340021.1202093-.7584741-.1814949-1.0059007l-.5890625-.4842069c.0904477-.476991.0904477-.9662579 0-1.4432489l.5890625-.4842069c.3017042-.2474266.3782917-.6718986.1814949-1.0059007l-.3884628-.6591461c-.1959661-.3340912-.608316-.4816806-.9775253-.3498785l-.7227956.2592849c-.37469-.3167428-.8067464-.5615375-1.2736487-.7216244l-.1337331-.7434918c-.0679795-.3791866-.4036031-.6557798-.7960304-.6560223h-.7705574c-.3924273.0002425-.728051.2768357-.7960304.6560223l-.1337331.7434918c-.4669024.1600869-.8989588.4048816-1.2736487.7216244l-.7259797-.2592849c-.3692094-.1318021-.7815593.0157873-.9775254.3498785l-.3884628.6716418c-.1967968.334002-.1202092.758474.1814949 1.0059007l.5890625.4842069c-.0904476.4769909-.0904476.9662579 0 1.4432488l-.5890625.4873308c-.3017041.2474267-.3782917.6718987-.1814949 1.0059008zm4.6742905-3.5550156c.5486271 0 1.0432328.3242361 1.2531833.8215174.2099505.4972814.0938996 1.069677-.2940383 1.4502797-.387938.3806027-.9713652.4944592-1.4782305.2884785-.5068653-.2059806-.8373503-.6912342-.8373503-1.2294877.0017507-.7342612.6080233-1.3290703 1.3564358-1.3307879zm7.2311402 9.3061437v-1.7275252c-.2487705-.4186652-.4221864-.8762383-.5126436-1.3526553-.2738344-.0843457-.5221959-.5216939-.7546368-1.327664-.2133362-.737244-.2133362-1.2152031 0-1.4619924.0847054-.0985964.2064234-.1594312.3375169-.1686914-.0463063-.1455048-.0835235-.2936452-.1114443-.443596-.1399433-.5929895-.1399433-1.2095096 0-1.8024991.1782353-.7044647.5518495-1.3467378 1.0794173-1.8556057.2892162-.3141201.6176482-.5912099.9775253-.8247136.2938767-.2050535.6153608-.3690643.9552365-.4873308.2868265-.0954818.5858359-.1512089.8883699-.1655675.7742483-.0838727 1.5554987.0781828 2.2288851.4623394.4294259.2283807.7922234.5606608 1.0539443.9652899.3214363.0670092.606814.2469974.8023987.5060742.5126435.6247831.6368243 1.7119056.3916469 3.1988893-.0284971.1511447-.0667841.3003538-.1146284.4467199.1322243.0084338.2552427.069344.340701.1686914.206968.2467893.206968.7247484 0 1.4619924-.2324408.8059701-.4808023 1.2495661-.7546368 1.327664-.090901.4703958-.2643581.9217357-.5126436 1.3339118v1.7462687c-.0003546.0278974.0157838.0534741.0413936.0656022 1.9235955.9424968 3.7383553 2.0851241 5.4130068 3.4081916.443636.3577626.6997044.8923361.6973226 1.4557446v1.5619576c0 .5969506-.4932506 1.0808747-1.1017061 1.0808747h-16.3918581c-.6084554 0-1.1017061-.4839241-1.1017061-1.0808747v-1.5619576c-.0033414-.5645007.2528191-1.100414.6973227-1.4588685 1.6747874-1.3219995 3.4895438-2.4635773 5.4130067-3.4050677.0243739-.0130015.0391667-.0383995.0382095-.0656022z" fill="#fff"/></g></svg>

<?xml version="1.0" encoding="UTF-8"?>
<svg width="65px" height="65px" viewBox="0 0 65 65" version="1.1" xmlns="http://www.w3.org/2000/svg" xmlns:xlink="http://www.w3.org/1999/xlink">
    <!-- Generator: sketchtool 45.2 (43514) - http://www.bohemiancoding.com/sketch -->
    <title>2F151175-282B-4A4B-9866-F4CF92819806</title>
    <desc>Created with sketchtool.</desc>
    <defs></defs>
    <g id="Page-1" stroke="none" stroke-width="1" fill="none" fill-rule="evenodd">
        <g id="PrimeReact-Showcase---Homepage" transform="translate(-598.000000, -844.000000)">
            <g id="homepage" transform="translate(301.000000, 70.000000)">
                <g id="features" transform="translate(20.000000, 350.000000)">
                    <g id="info-box" transform="translate(92.000000, 171.000000)">
                        <g id="Group" transform="translate(119.000000, 253.000000)">
                            <g id="productivity">
                                <g id="icon-productive" transform="translate(66.000000, 0.000000)">
                                    <path d="M39.8478261,0 L25.1521739,0 C11.3043478,0 0,11.3043478 0,25.1521739 L0,39.8478261 C0,53.6956522 11.3043478,65 25.1521739,65 L39.8478261,65 C53.6956522,65 65,53.6956522 65,39.8478261 L65,25.1521739 C65,11.3043478 53.6956522,0 39.8478261,0 Z M63.5869565,39.8478261 C63.5869565,52.9184783 52.9184783,63.5869565 39.8478261,63.5869565 L25.1521739,63.5869565 C12.0815217,63.5869565 1.41304348,52.9184783 1.41304348,39.8478261 L1.41304348,25.1521739 C1.41304348,12.0815217 12.0815217,1.41304348 25.1521739,1.41304348 L39.8478261,1.41304348 C52.9184783,1.41304348 63.5869565,12.0815217 63.5869565,25.1521739 L63.5869565,39.8478261 Z M59.3478261,39.5652174 C59.3478261,50.4456522 50.4456522,59.3478261 39.5652174,59.3478261 L25.4347826,59.3478261 C14.5543478,59.3478261 5.65217391,50.4456522 5.65217391,39.5652174 L5.65217391,25.4347826 C5.65217391,14.5543478 14.5543478,5.65217391 25.4347826,5.65217391 L39.5652174,5.65217391 C50.4456522,5.65217391 59.3478261,14.5543478 59.3478261,25.4347826 L59.3478261,39.5652174 Z" id="Shape" fill="#222222" fill-rule="nonzero"></path>
                                    <path d="M47.9338842,31.1687088 L47.1760633,31.0375044 C47.0125468,30.5795853 46.7630696,30.1557586 46.4405312,29.7879383 L46.6920768,29.0788095 C46.826419,28.7165812 46.6759852,28.3120282 46.3354552,28.1197675 L45.6636055,27.7417737 C45.3234096,27.5473506 44.8898136,27.6226538 44.6383183,27.9198369 L44.1447795,28.4946373 C43.6585956,28.4058999 43.1598992,28.4058999 42.6737153,28.4946373 L42.1801764,27.916713 C41.9279812,27.6207136 41.4953285,27.5455741 41.1548893,27.7386498 L40.4830396,28.1197675 C40.1435624,28.3128953 39.9934504,28.7165829 40.126418,29.0788095 L40.3907001,29.7879383 C40.0679147,30.1555866 39.8184093,30.5794615 39.655168,31.0375044 L38.8973471,31.1687088 C38.5108525,31.2354029 38.2289286,31.5646805 38.2286815,31.9496877 L38.2286815,32.7087991 C38.2289286,33.0938062 38.5108525,33.4230838 38.8973471,33.4897779 L39.655168,33.6209823 C39.8185471,34.0789632 40.0680384,34.502814 40.3907001,34.8705485 L40.1391545,35.589049 C40.0048122,35.9512772 40.1552461,36.3558303 40.4957761,36.548091 L41.1676258,36.9260847 C41.508065,37.1191604 41.9407177,37.044021 42.1929129,36.7480216 L42.6864518,36.1700972 C43.1726557,36.2586208 43.671312,36.2586208 44.157516,36.1700972 L44.6510548,36.7480216 C44.9032501,37.044021 45.3359028,37.1191604 45.676342,36.9260847 L46.3481916,36.5449671 C46.6823822,36.3490573 46.8268903,35.9473597 46.6920768,35.589049 L46.4277947,34.8799202 C46.7503331,34.5120999 46.9998103,34.0882731 47.1633268,33.6303541 L47.9211477,33.4991496 C48.3076423,33.4324556 48.5895661,33.103178 48.5898133,32.7181708 L48.5898133,31.9496877 C48.5906949,31.5686037 48.315315,31.2407239 47.9338842,31.1687088 Z M43.4219839,33.6678411 C42.6740928,33.6661106 42.0687423,33.0708001 42.0687472,32.3370483 C42.068752,31.6032965 42.6741102,31.0079937 43.4220013,31.0062726 C44.1698924,31.0045515 44.7780905,31.5970616 44.7816038,32.3308053 C44.7807603,32.684581 44.6367055,33.0235382 44.3811299,33.2731095 C44.1255544,33.5226809 43.7793937,33.6624227 43.4187998,33.6615932 L43.4219839,33.6678411 Z M42.7214771,21.1721798 L42.3330143,20.5224055 C42.1370482,20.1883143 41.7246983,20.0407249 41.3554889,20.1725269 L40.6422457,20.4318119 C40.2675998,20.1150082 39.8355311,19.8702065 39.3685971,19.7101875 L39.2348639,18.9666956 C39.1667873,18.576792 38.8163845,18.2956408 38.4133606,18.3075495 L37.6523555,18.3075495 C37.2599282,18.307792 36.9243046,18.5843851 36.8563251,18.9635717 L36.722592,19.7070636 C36.2556897,19.8671505 35.8236333,20.1119452 35.4489433,20.428688 L34.7261477,20.169403 C34.3569384,20.037601 33.9445884,20.1851904 33.7486224,20.5192815 L33.3633437,21.1784277 C33.1665469,21.5124297 33.2431345,21.9369017 33.5448386,22.1843284 L34.1339011,22.6685353 C34.0431312,23.1465472 34.0431312,23.6368961 34.1339011,24.1149081 L33.5448386,24.5991149 C33.2476564,24.8432924 33.1688519,25.260004 33.3569754,25.59252 L33.7454383,26.2516661 C33.9414043,26.5857573 34.3537542,26.7333467 34.7229636,26.6015446 L35.4457592,26.3422597 C35.8205809,26.6588204 36.2526004,26.9035942 36.7194079,27.0638841 L36.853141,27.807376 C36.9211204,28.1865626 37.2567441,28.4631557 37.6491714,28.4633982 L38.4133606,28.4633982 C38.8057879,28.4631557 39.1414115,28.1865626 39.209391,27.807376 L39.3685971,27.0763798 C39.8354045,26.9160899 40.267424,26.6713161 40.6422457,26.3547553 L41.3650413,26.6140403 C41.7342507,26.7458424 42.1466006,26.598253 42.3425666,26.2641618 L42.7214771,25.59252 C42.9140748,25.2643054 42.8434052,24.8483052 42.5527187,24.5991149 L41.9477356,24.1149081 C42.0385055,23.6368961 42.0385055,23.1465472 41.9477356,22.6685353 L42.5527187,22.1843284 C42.8501119,21.9335164 42.9212446,21.5095232 42.7214771,21.1784277 L42.7214771,21.1721798 Z M38.0376342,24.7240715 C37.4881451,24.7227823 36.9937337,24.3963771 36.7855564,23.8974631 C36.5773791,23.398549 36.6965683,22.825703 37.0873983,22.4467528 C37.4782284,22.0678026 38.063478,21.9576223 38.5695203,22.1677254 C39.0755626,22.3778285 39.4024121,22.8667023 39.3972541,23.4057793 C39.3885337,24.1363714 38.7823579,24.7241216 38.0376342,24.7240715 Z M24.444619,27.6043215 L25.1164687,27.9823152 C25.4569079,28.1753909 25.8895606,28.1002515 26.1417558,27.804252 L26.6321106,27.2294516 C27.1193351,27.3185052 27.6191343,27.3185052 28.1063589,27.2294516 L28.5998977,27.807376 C28.852093,28.1033754 29.2847457,28.1785148 29.6251849,27.9854391 L30.2970346,27.6043215 C30.6375646,27.4120608 30.7879984,27.0075077 30.6536562,26.6452795 L30.3893741,25.9361507 C30.7121594,25.5685023 30.9616649,25.1446275 31.1249062,24.6865846 L31.8827271,24.5553801 C32.2692217,24.488686 32.5511455,24.1594085 32.5513927,23.7744013 L32.5513927,23.012166 C32.5511455,22.6271588 32.2692217,22.2978812 31.8827271,22.2311871 L31.1249062,22.0999827 C30.9616649,21.6419398 30.7121594,21.2180649 30.3893741,20.8504166 L30.6536562,20.1381639 C30.7879984,19.7759356 30.6375646,19.3713826 30.2970346,19.1791219 L29.6251849,18.7980042 C29.2847457,18.6049285 28.852093,18.680068 28.5998977,18.9760674 L28.1063589,19.5571156 C27.6201683,19.4684496 27.1214853,19.4684496 26.6352947,19.5571156 L26.1385717,18.9760674 C25.8863765,18.680068 25.4537237,18.6049285 25.1132846,18.7980042 L24.444619,19.1791219 C24.1028856,19.3703889 23.951021,19.7751757 24.0848133,20.1381639 L24.3490954,20.8504166 C24.0264337,21.218151 23.7769424,21.6420018 23.6135633,22.0999827 L22.8557423,22.2311871 C22.4692478,22.2978812 22.1873239,22.6271588 22.1870768,23.012166 L22.1870768,23.7712774 C22.1873239,24.1562845 22.4692478,24.4855621 22.8557423,24.5522562 L23.6135633,24.6834606 C23.7770797,25.1413797 24.0265569,25.5652065 24.3490954,25.9330268 L24.0848133,26.6452795 C23.951021,27.0082676 24.1028856,27.4130544 24.444619,27.6043215 L24.444619,27.6043215 Z M27.3708268,22.0593718 C28.1178818,22.0594223 28.7242705,22.6520902 28.727159,23.3850142 C28.7300475,24.1179382 28.1283483,24.7151889 27.3813161,24.7209071 C26.6342838,24.7266253 26.0231592,24.1386583 26.014391,23.4057793 C26.0109965,23.0503846 26.1523045,22.7083559 26.4069621,22.455581 C26.6616198,22.202806 27.0085678,22.0601885 27.3708268,22.0593718 L27.3708268,22.0593718 Z M17.5000498,34.555033 L17.8885126,35.2141791 C18.0844787,35.5482703 18.4968286,35.6958597 18.8660379,35.5640577 L19.5983859,35.2766575 C19.9731638,35.5932788 20.4051955,35.8380595 20.8720346,35.9982819 L21.0057677,36.7417737 C21.0737471,37.1209603 21.4093708,37.3975535 21.8017981,37.3977959 L22.5755396,37.3977959 C22.9679669,37.3975535 23.3035906,37.1209603 23.37157,36.7417737 L23.5053031,35.9982819 C23.9721421,35.8380595 24.4041739,35.5932788 24.7789518,35.2766575 L25.5017474,35.5359424 C25.8709568,35.6677445 26.2833067,35.5201551 26.4792727,35.1860639 L26.8645514,34.5269178 C27.0613482,34.1929157 26.9847607,33.7684437 26.6830565,33.5210171 L26.093994,33.0368102 C26.1844417,32.5598192 26.1844417,32.0705523 26.093994,31.5935613 L26.6830565,31.1093544 C26.9847607,30.8619278 27.0613482,30.4374558 26.8645514,30.1034537 L26.4760886,29.4443076 C26.2801225,29.1102164 25.8677726,28.962627 25.4985633,29.0944291 L24.7757677,29.353714 C24.4010777,29.0369712 23.9690213,28.7921765 23.502119,28.6320896 L23.3683859,27.8885978 C23.3004064,27.5094112 22.9647828,27.232818 22.5723555,27.2325755 L21.8017981,27.2325755 C21.4093708,27.232818 21.0737471,27.5094112 21.0057677,27.8885978 L20.8720346,28.6320896 C20.4051322,28.7921765 19.9730758,29.0369712 19.5983859,29.353714 L18.8724062,29.0944291 C18.5031968,28.962627 18.0908469,29.1102164 17.8948808,29.4443076 L17.506418,30.1159494 C17.3096212,30.4499514 17.3862088,30.8744234 17.6879129,31.1218501 L18.2769754,31.606057 C18.1865278,32.0830479 18.1865278,32.5723149 18.2769754,33.0493058 L17.6879129,33.5366366 C17.3862088,33.7840633 17.3096212,34.2085353 17.506418,34.5425374 L17.5000498,34.555033 Z M22.1743403,31.0000174 C22.7229674,31.0000174 23.2175731,31.3242535 23.4275236,31.8215348 C23.6374741,32.3188162 23.5214232,32.8912118 23.1334853,33.2718145 C22.7455473,33.6524172 22.1621201,33.7662737 21.6552548,33.560293 C21.1483895,33.3543124 20.8179045,32.8690588 20.8179045,32.3308053 C20.8196552,31.5965441 21.4259278,31.001735 22.1743403,31.0000174 L22.1743403,31.0000174 Z M29.4054805,40.3061611 L29.4054805,38.5786359 C29.15671,38.1599707 28.9832941,37.7023976 28.8928369,37.2259806 C28.6190025,37.1416349 28.370641,36.7042867 28.1382001,35.8983166 C27.9248639,35.1610726 27.9248639,34.6831135 28.1382001,34.4363242 C28.2229055,34.3377278 28.3446235,34.276893 28.475717,34.2676328 C28.4294107,34.122128 28.3921935,33.9739876 28.3642727,33.8240368 L28.3642727,33.8240368 C28.2243294,33.2310473 28.2243294,32.6145272 28.3642727,32.0215377 C28.542508,31.317073 28.9161222,30.6747999 29.44369,30.165932 C29.7329062,29.8518119 30.0613382,29.5747221 30.4212153,29.3412184 C30.715092,29.1361649 31.0365761,28.9721541 31.3764518,28.8538876 C31.6632783,28.7584058 31.9622877,28.7026787 32.2648217,28.6883201 C33.03907,28.6044474 33.8203204,28.7665029 34.4937068,29.1506595 C34.9231327,29.3790402 35.2859302,29.7113203 35.5476511,30.1159494 C35.8690874,30.1829586 36.1544651,30.3629468 36.3500498,30.6220236 C36.8626933,31.2468067 36.9868741,32.3339292 36.7416967,33.8209129 C36.7131996,33.9720576 36.6749126,34.1212667 36.6270683,34.2676328 C36.7592926,34.2760666 36.882311,34.3369768 36.9677693,34.4363242 C37.1747373,34.6831135 37.1747373,35.1610726 36.9677693,35.8983166 C36.7353285,36.7042867 36.486967,37.1478827 36.2131325,37.2259806 C36.1222315,37.6963764 35.9487744,38.1477163 35.7004889,38.5598924 L35.7004889,40.3061611 C35.7001343,40.3340585 35.7162727,40.3596352 35.7418825,40.3717633 C37.665478,41.3142601 39.4802378,42.4568874 41.1548893,43.7799549 C41.5985253,44.1377175 41.8545937,44.672291 41.8522119,45.2356995 L41.8522119,46.7976571 C41.8522119,47.3946077 41.3589613,47.8785318 40.7505058,47.8785318 L24.3586477,47.8785318 C23.7501923,47.8785318 23.2569416,47.3946077 23.2569416,46.7976571 L23.2569416,45.2356995 C23.2536002,44.6711988 23.5097607,44.1352855 23.9542643,43.776831 C25.6290517,42.4548315 27.4438081,41.3132537 29.367271,40.3717633 C29.3916449,40.3587618 29.4064377,40.3333638 29.4054805,40.3061611 L29.4054805,40.3061611 Z" id="icon-productivity" fill="#FFFFFF"></path>
                                </g>
                            </g>
                        </g>
                    </g>
                </g>
            </g>
        </g>
    </g>
</svg>
